src/images/v2/milvus.svg

<svg fill="none" height="35" viewBox="0 0 148 35" width="148" xmlns="http://www.w3.org/2000/svg"><g fill="#12c3f4"><path d="m35.2688 5.48219c-6.6189-6.64292-17.3519-6.64292-23.9708 0l-10.818369 10.85731c-.639508.6426-.639508 1.6771 0 2.3196l10.818369 10.8574c6.6189 6.6429 17.3519 6.6429 23.9708.0109 6.6296-6.6321 6.6296-17.4023 0-24.04521zm-2.558 20.85441c-4.8603 4.8787-12.7475 4.8787-17.6078 0l-7.96183-7.9824c-.46898-.4683-.46898-1.2306 0-1.7097l7.95123-7.97153c4.8602-4.87874 12.7475-4.87874 17.6077 0 4.871 4.87873 4.871 12.78493.0107 17.66363z"/><path d="m49.4439 16.3504-4.7643-4.8678c-.2878-.2941-.7674-.0218-.6715.3811.8207 3.7135.8207 7.5904 0 11.3039-.0853.4029.3943.6643.6715.3811l4.7643-4.8678c.6288-.6534.6288-1.688 0-2.3305z"/><path d="m23.9598 26.0426c4.6092 0 8.3456-3.8176 8.3456-8.5269 0-4.7092-3.7364-8.52687-8.3456-8.52687-4.6091 0-8.3455 3.81767-8.3455 8.52687 0 4.7093 3.7364 8.5269 8.3455 8.5269z"/><path d="m59.4233 19.0123c0-.9069.1531-1.6887.4591-2.3454.3061-.6567.7346-1.2196 1.2855-1.6887.551-.469 1.1937-.813 1.9283-1.0319s1.5609-.344 2.4179-.344c1.0713 0 2.0201.1876 2.8771.5629.8264.3752 1.5304.8756 2.0507 1.5323.5203-.6567 1.1936-1.1571 2.02-1.5323.8264-.3753 1.7752-.5629 2.8465-.5629.857 0 1.6528.1251 2.3873.344.7346.2189 1.3774.5629 1.9283 1.0319.5509.4691.9794 1.032 1.2855 1.6887s.4591 1.4385.4591 2.3454v8.9438h-4.3156v-7.6929c0-.9382-.1836-1.5949-.5509-2.0014s-.8876-.5942-1.5916-.5942-1.2549.2502-1.714.7193c-.4285.4691-.6427 1.2196-.6427 2.2828v7.3177h-4.3156v-7.3177c0-1.0319-.2143-1.7825-.6428-2.2828-.4285-.4691-.9794-.7193-1.6834-.7193-.6733 0-1.2242.1877-1.5915.5942-.3979.4065-.5816 1.0632-.5816 2.0014v7.6929h-4.3156z"/><path d="m84.9497 10.2562c0-.68799.2143-1.28215.6734-1.75123s1.01-.71926 1.714-.71926c.6733 0 1.2548.25018 1.714.71926.4591.46908.7039 1.06324.7039 1.75123 0 .688-.2448 1.2822-.7039 1.7512-.4592.4691-1.0407.688-1.714.688-.6734 0-1.2549-.2189-1.714-.688-.4285-.5003-.6734-1.0632-.6734-1.7512zm.2449 5.6915c0-.7192.2142-1.2196.6121-1.501.3979-.2815.9488-.4379 1.6222-.4379.4897 0 .9182.0626 1.3161.1877s.6427.1876.7652.2189v13.572h-4.3156z"/><path d="m93.4893 9.72458c0-.71926.2142-1.21961.6121-1.50106.3979-.28144.9488-.43781 1.6222-.43781.4897 0 .9182.06254 1.3161.18763s.6427.18763.7652.21891v19.76395h-4.3156z"/><path d="m105.701 27.9561c-.551-1.0007-1.102-2.0327-1.622-3.0959-.521-1.0633-1.01-2.064-1.439-2.9709-.428-.9068-.796-1.7199-1.071-2.3454-.276-.6567-.459-1.0632-.551-1.2508-.153-.3753-.306-.7818-.459-1.2197-.184-.469-.245-.8756-.245-1.2196 0-.5003.184-.9381.551-1.3134.367-.344.887-.5316 1.622-.5316.582 0 1.041.0625 1.408.1876s.551.1877.612.2189c.306.9069.612 1.8138.98 2.7207.336.9069.673 1.7512.979 2.533s.582 1.4698.857 2.064c.245.5942.428 1.0007.551 1.2509.122-.2502.275-.6568.52-1.2196.245-.5629.49-1.2197.765-1.9076.276-.688.551-1.4073.827-2.0953.275-.6879.52-1.3134.704-1.7825.122-.2814.214-.5316.367-.7818.122-.2501.306-.4378.49-.6254.183-.1876.428-.3127.673-.4066.276-.0938.612-.125.98-.125.367 0 .673.0312.979.125.275.0626.551.1564.765.2502s.398.1877.52.2502c.123.0938.215.1251.245.1564-.061.3439-.245.813-.52 1.501-.275.6567-.582 1.4385-.949 2.2829-.367.8443-.765 1.7512-1.194 2.6894-.428.9381-.857 1.845-1.254 2.7206-.398.8757-.796 1.6575-1.163 2.3767-.368.688-.643 1.2509-.827 1.6262h-4.101z"/><path d="m122.259 21.4515c0 1.9076.827 2.8458 2.51 2.8458 1.684 0 2.51-.9382 2.51-2.8458v-5.5038c0-.7193.214-1.2197.612-1.5011.398-.2815.949-.4378 1.622-.4378.49 0 .919.0625 1.316.1876.398.1251.643.1877.766.2189v7.8493c0 1.032-.184 1.9076-.521 2.6581-.336.7506-.826 1.376-1.438 1.8763-.612.5004-1.316.8757-2.173 1.1258-.827.2502-1.745.3753-2.694.3753-.979 0-1.867-.1251-2.693-.3753-.827-.2501-1.561-.6254-2.173-1.1258-.612-.5003-1.072-1.1257-1.439-1.8763-.337-.7505-.52-1.6574-.52-2.6581v-6.3169c0-.7193.214-1.2197.612-1.5011.398-.2815.949-.4378 1.622-.4378.49 0 .918.0625 1.316.1876s.643.1877.765.2189z"/><path d="m135.972 23.7031c.153.1251.367.2502.704.4066.336.1563.734.3127 1.193.4378s.98.2502 1.561.344c.582.0938 1.194.1563 1.837.1563.734 0 1.285-.0625 1.652-.2189.368-.1251.551-.3752.551-.7192 0-.3753-.153-.6255-.459-.7506-.306-.125-.796-.2501-1.469-.3439l-1.408-.1564c-.704-.0938-1.377-.2189-2.02-.4065-.643-.1877-1.224-.4379-1.714-.7818-.49-.344-.888-.7819-1.163-1.3135s-.428-1.1883-.428-2.0014c0-.688.122-1.3134.367-1.8763s.612-1.0633 1.132-1.5011c.521-.4378 1.194-.7818 1.99-1.0007.796-.2501 1.775-.3752 2.877-.3752 1.132 0 2.081.0625 2.907.2189.827.1563 1.5.3752 2.112.688.337.1876.612.4065.827.6567.214.2501.306.5941.306.9694 0 .2815-.061.5629-.184.7818-.122.2189-.245.4378-.398.5942-.153.1563-.306.2814-.428.3752-.123.0939-.214.1564-.245.1564-.061-.0625-.214-.1564-.429-.3127-.244-.1564-.55-.2815-.979-.4378-.398-.1251-.888-.2502-1.439-.3753-.55-.1251-1.193-.1564-1.928-.1564-.796 0-1.377.0939-1.683.2815s-.459.4378-.459.7505.153.5316.428.6567c.276.1251.704.2502 1.286.344l2.448.344c.612.0938 1.194.2189 1.745.4066.551.1876 1.071.4378 1.5.7505.428.344.795.7505 1.04 1.2509.245.5003.398 1.1258.398 1.8763 0 1.5323-.581 2.7207-1.714 3.5963-1.132.8443-2.724 1.2821-4.744 1.2821-1.041 0-1.989-.0625-2.816-.2189-.826-.1563-1.5-.3127-2.112-.5003-.581-.1877-1.071-.4066-1.438-.5942-.367-.2189-.612-.3753-.765-.4691z"/></g></svg>

<svg width="148" height="35" viewBox="0 0 148 35" fill="none" xmlns="http://www.w3.org/2000/svg">
<path d="M35.2688 5.48219C28.6499 -1.16073 17.9169 -1.16073 11.298 5.48219L0.479631 16.3395C-0.159877 16.9821 -0.159877 18.0166 0.479631 18.6591L11.298 29.5165C17.9169 36.1594 28.6499 36.1594 35.2688 29.5274C41.8984 22.8953 41.8984 12.1251 35.2688 5.48219ZM32.7108 26.3366C27.8505 31.2153 19.9633 31.2153 15.103 26.3366L7.14117 18.3542C6.67219 17.8859 6.67219 17.1236 7.14117 16.6445L15.0924 8.67297C19.9526 3.79423 27.8399 3.79423 32.7001 8.67297C37.5711 13.5517 37.5711 21.4579 32.7108 26.3366Z" fill="#12C3F4"/>
<path d="M49.4439 16.3504L44.6796 11.4826C44.3918 11.1885 43.9122 11.4608 44.0081 11.8637C44.8288 15.5772 44.8288 19.4541 44.0081 23.1676C43.9228 23.5705 44.4024 23.8319 44.6796 23.5487L49.4439 18.6809C50.0727 18.0275 50.0727 16.9929 49.4439 16.3504Z" fill="#12C3F4"/>
<path d="M23.9598 26.0426C28.569 26.0426 32.3054 22.225 32.3054 17.5157C32.3054 12.8065 28.569 8.98883 23.9598 8.98883C19.3507 8.98883 15.6143 12.8065 15.6143 17.5157C15.6143 22.225 19.3507 26.0426 23.9598 26.0426Z" fill="#12C3F4"/>
<path d="M59.4233 19.0123C59.4233 18.1054 59.5764 17.3236 59.8824 16.6669C60.1885 16.0102 60.617 15.4473 61.1679 14.9782C61.7189 14.5092 62.3616 14.1652 63.0962 13.9463C63.8308 13.7274 64.6571 13.6023 65.5141 13.6023C66.5854 13.6023 67.5342 13.7899 68.3912 14.1652C69.2176 14.5404 69.9216 15.0408 70.4419 15.6975C70.9622 15.0408 71.6355 14.5404 72.4619 14.1652C73.2883 13.7899 74.2371 13.6023 75.3084 13.6023C76.1654 13.6023 76.9612 13.7274 77.6957 13.9463C78.4303 14.1652 79.0731 14.5092 79.624 14.9782C80.1749 15.4473 80.6034 16.0102 80.9095 16.6669C81.2156 17.3236 81.3686 18.1054 81.3686 19.0123V27.9561H77.053V20.2632C77.053 19.325 76.8694 18.6683 76.5021 18.2618C76.1348 17.8553 75.6145 17.6676 74.9105 17.6676C74.2065 17.6676 73.6556 17.9178 73.1965 18.3869C72.768 18.856 72.5538 19.6065 72.5538 20.6697V27.9874H68.2382V20.6697C68.2382 19.6378 68.0239 18.8872 67.5954 18.3869C67.1669 17.9178 66.616 17.6676 65.912 17.6676C65.2387 17.6676 64.6878 17.8553 64.3205 18.2618C63.9226 18.6683 63.7389 19.325 63.7389 20.2632V27.9561H59.4233V19.0123Z" fill="#12C3F4"/>
<path d="M84.9497 10.2562C84.9497 9.56821 85.164 8.97405 85.6231 8.50497C86.0822 8.03589 86.6331 7.78571 87.3371 7.78571C88.0104 7.78571 88.5919 8.03589 89.0511 8.50497C89.5102 8.97405 89.755 9.56821 89.755 10.2562C89.755 10.9442 89.5102 11.5384 89.0511 12.0074C88.5919 12.4765 88.0104 12.6954 87.3371 12.6954C86.6637 12.6954 86.0822 12.4765 85.6231 12.0074C85.1946 11.5071 84.9497 10.9442 84.9497 10.2562ZM85.1946 15.9477C85.1946 15.2285 85.4088 14.7281 85.8067 14.4467C86.2046 14.1652 86.7555 14.0088 87.4289 14.0088C87.9186 14.0088 88.3471 14.0714 88.745 14.1965C89.1429 14.3216 89.3877 14.3841 89.5102 14.4154V27.9874H85.1946V15.9477Z" fill="#12C3F4"/>
<path d="M93.4893 9.72458C93.4893 9.00532 93.7035 8.50497 94.1014 8.22352C94.4993 7.94208 95.0502 7.78571 95.7236 7.78571C96.2133 7.78571 96.6418 7.84825 97.0397 7.97334C97.4376 8.09843 97.6824 8.16097 97.8049 8.19225V27.9562H93.4893V9.72458Z" fill="#12C3F4"/>
<path d="M105.701 27.9561C105.15 26.9554 104.599 25.9234 104.079 24.8602C103.558 23.7969 103.069 22.7962 102.64 21.8893C102.212 20.9825 101.844 20.1694 101.569 19.5439C101.293 18.8872 101.11 18.4807 101.018 18.2931C100.865 17.9178 100.712 17.5113 100.559 17.0734C100.375 16.6044 100.314 16.1978 100.314 15.8538C100.314 15.3535 100.498 14.9157 100.865 14.5404C101.232 14.1964 101.752 14.0088 102.487 14.0088C103.069 14.0088 103.528 14.0713 103.895 14.1964C104.262 14.3215 104.446 14.3841 104.507 14.4153C104.813 15.3222 105.119 16.2291 105.487 17.136C105.823 18.0429 106.16 18.8872 106.466 19.669C106.772 20.4508 107.048 21.1388 107.323 21.733C107.568 22.3272 107.751 22.7337 107.874 22.9839C107.996 22.7337 108.149 22.3271 108.394 21.7643C108.639 21.2014 108.884 20.5446 109.159 19.8567C109.435 19.1687 109.71 18.4494 109.986 17.7614C110.261 17.0735 110.506 16.448 110.69 15.9789C110.812 15.6975 110.904 15.4473 111.057 15.1971C111.179 14.947 111.363 14.7593 111.547 14.5717C111.73 14.3841 111.975 14.259 112.22 14.1651C112.496 14.0713 112.832 14.0401 113.2 14.0401C113.567 14.0401 113.873 14.0713 114.179 14.1651C114.454 14.2277 114.73 14.3215 114.944 14.4153C115.158 14.5091 115.342 14.603 115.464 14.6655C115.587 14.7593 115.679 14.7906 115.709 14.8219C115.648 15.1658 115.464 15.6349 115.189 16.3229C114.914 16.9796 114.607 17.7614 114.24 18.6058C113.873 19.4501 113.475 20.357 113.046 21.2952C112.618 22.2333 112.189 23.1402 111.792 24.0158C111.394 24.8915 110.996 25.6733 110.629 26.3925C110.261 27.0805 109.986 27.6434 109.802 28.0187H105.701V27.9561Z" fill="#12C3F4"/>
<path d="M122.259 21.4515C122.259 23.3591 123.086 24.2973 124.769 24.2973C126.453 24.2973 127.279 23.3591 127.279 21.4515V15.9477C127.279 15.2284 127.493 14.728 127.891 14.4466C128.289 14.1651 128.84 14.0088 129.513 14.0088C130.003 14.0088 130.432 14.0713 130.829 14.1964C131.227 14.3215 131.472 14.3841 131.595 14.4153V22.2646C131.595 23.2966 131.411 24.1722 131.074 24.9227C130.738 25.6733 130.248 26.2987 129.636 26.799C129.024 27.2994 128.32 27.6747 127.463 27.9248C126.636 28.175 125.718 28.3001 124.769 28.3001C123.79 28.3001 122.902 28.175 122.076 27.9248C121.249 27.6747 120.515 27.2994 119.903 26.799C119.291 26.2987 118.831 25.6733 118.464 24.9227C118.127 24.1722 117.944 23.2653 117.944 22.2646V15.9477C117.944 15.2284 118.158 14.728 118.556 14.4466C118.954 14.1651 119.505 14.0088 120.178 14.0088C120.668 14.0088 121.096 14.0713 121.494 14.1964C121.892 14.3215 122.137 14.3841 122.259 14.4153V21.4515Z" fill="#12C3F4"/>
<path d="M135.972 23.7031C136.125 23.8282 136.339 23.9533 136.676 24.1097C137.012 24.266 137.41 24.4224 137.869 24.5475C138.328 24.6726 138.849 24.7977 139.43 24.8915C140.012 24.9853 140.624 25.0478 141.267 25.0478C142.001 25.0478 142.552 24.9853 142.919 24.8289C143.287 24.7038 143.47 24.4537 143.47 24.1097C143.47 23.7344 143.317 23.4842 143.011 23.3591C142.705 23.2341 142.215 23.109 141.542 23.0152L140.134 22.8588C139.43 22.765 138.757 22.6399 138.114 22.4523C137.471 22.2646 136.89 22.0144 136.4 21.6705C135.91 21.3265 135.512 20.8886 135.237 20.357C134.962 19.8254 134.809 19.1687 134.809 18.3556C134.809 17.6676 134.931 17.0422 135.176 16.4793C135.421 15.9164 135.788 15.416 136.308 14.9782C136.829 14.5404 137.502 14.1964 138.298 13.9775C139.094 13.7274 140.073 13.6023 141.175 13.6023C142.307 13.6023 143.256 13.6648 144.082 13.8212C144.909 13.9775 145.582 14.1964 146.194 14.5092C146.531 14.6968 146.806 14.9157 147.021 15.1659C147.235 15.416 147.327 15.76 147.327 16.1353C147.327 16.4168 147.266 16.6982 147.143 16.9171C147.021 17.136 146.898 17.3549 146.745 17.5113C146.592 17.6676 146.439 17.7927 146.317 17.8865C146.194 17.9804 146.103 18.0429 146.072 18.0429C146.011 17.9804 145.858 17.8865 145.643 17.7302C145.399 17.5738 145.093 17.4487 144.664 17.2924C144.266 17.1673 143.776 17.0422 143.225 16.9171C142.675 16.792 142.032 16.7607 141.297 16.7607C140.501 16.7607 139.92 16.8546 139.614 17.0422C139.308 17.2298 139.155 17.48 139.155 17.7927C139.155 18.1054 139.308 18.3243 139.583 18.4494C139.859 18.5745 140.287 18.6996 140.869 18.7934L143.317 19.1374C143.929 19.2312 144.511 19.3563 145.062 19.544C145.613 19.7316 146.133 19.9818 146.562 20.2945C146.99 20.6385 147.357 21.045 147.602 21.5454C147.847 22.0457 148 22.6712 148 23.4217C148 24.954 147.419 26.1424 146.286 27.018C145.154 27.8623 143.562 28.3001 141.542 28.3001C140.501 28.3001 139.553 28.2376 138.726 28.0812C137.9 27.9249 137.226 27.7685 136.614 27.5809C136.033 27.3932 135.543 27.1743 135.176 26.9867C134.809 26.7678 134.564 26.6114 134.411 26.5176L135.972 23.7031Z" fill="#12C3F4"/>
</svg>
